!!!OTL: Die Sonne ist verblichen. / B. Die weltliche Melodie
!!!ARE: Europa, Mitteleuropa, Deutschland
!!!SCT: A0116B
!!!TXL: @@GMH
!!!YEM: Copyright 1995, estate of Helmut Schaffrath.
**kern	**text
*M4/4yy	*
*k[b-]	*
*G:	*
{4g	Wacht
=1	=1
2g	auff,
4dd	jhr
2ff	Chriſten
=2-	=2-
.	.
4ee	.
2dd	al-
=3	=3
1a}	-le,
=4	=4
{4b-/	ſeyd
2g	nüchtern
4a	.
=5	=5
2.b-	al-
4cc	-le-
=6	=6
2a	-ʒeit,
4r}	.
{4g	rufft
=7	=7
2g	an
4dd	mit
2ff	rei-
=8-	=8-
.	.
4ee	-chem
2dd	Schalle
=9	=9
1a}	.
=10	=10
{4b-/	den
2g	Vatr
4a	im
=11	=11
2.b-	Him-
4cc	-mel-
=12	=12
2a	-reich!
4r}	.
{4cc	Er
=13	=13
4cc	wird
4cc	ſonſt
4cc	hefftig
4b-	.
=14	=14
2a	ſtraf-
1g	-fen,
=15-	=15-
.	.
4a	vnd
2b-	vns
=16-	=16-
.	.
4g	verlaſ-
4f	.
4g	-ſen
=17	=17
2a	gar,
4r}	.
{4a	wo
=18	=18
2f	wir
4f	der
2g	Sünd
=19-	=19-
.	.
4a	nit
2b-/	maſ-
=20	=20
1g}	-ſen,
=21||	=21||
{2dd	von
2ff	al-
=22	=22
4ee	-lem
2dd	V-
4cc	-bel
=23	=23
2.b-/	laſ-
8aL	.
8gJ	.
=24	=24
2f#i}	-ſen,
{2g	O
=25	=25
4.b-	weh
8b-	der
4b-	groſſen
4cc	.
=26	=26
*lig	*
2a/ll	Gfahr.
2g/ll}	.
*Xlig	*
==	==
!!!GTL: Tage- oder Wächterlieder
!!!AGN: Romanze, Ballade, Lied
!! M. Praetorius Mus. Sion. VIII. No. 229. "Wacht auf ihr Christen alle"
!!!ONB: ESAC (Essen Associative Code) Database: ALTDEU
!!!AMT: irregular
!!!AIN: vox
!!!EED: Helmut Schaffrath
!!!EEV: 1.0
!!@@Comment:B. "Die weltliche Melodie ziemlich getreu gibt M. Prätorius (Mus. Sion. VIII. No. 229)
!! zu folgendem geistlichenTexte, der schon1605 mit derselben Weise bei GesiuS vorkommt:"
!!@@END:
!!!RDF**kern: i = editorial accidental
!!!RDF**kern: l = terminal long
!!!URL-scan:
!!!ENC: Anna Maria Matuszewska
!!!EEV: 2024/23/02
*-	*-
